X:1
T:Title
%%score ( 1 2 ) { 3 | 4 }
L:1/8
Q:1/4=102
M:4/4
K:Eb
V:1 treble nm="Grand Piano, Soprano"
V:2 treble 
V:3 bass nm="Choir Pad, If Your Soul Is Lost"
V:4 bass 
V:1
 E[EF] [EG]2 [EF]2 E2 | [EG][FA] [GB]2 [Ac]2 [GB]2 | [Ge][Ge] [Ad]2 [Ac]2 [GB]2 | %3
w: By~Haldor~Lillenas * * * *|||
 [EG][EG] [EF]2 [EG]2 [DF]2 | E[EF] [EG]2 [GB]2 [_G=A]2 | [_Gc][Gd] [=GB]2 [Ee]2 [Ee]2 | z8 | %7
w: ||||
 z2 B6 | E[EF] [EG]2 [GB]2 [_G=A]2 | [_Gc][Gc] [=GB]2 [Ee]2 [Ee]2 | E[EF] [EG]4 [DF]2- | %11
w: ||||
 [DF]2 E2 C2 B,2- | B,6 z2 |] %13
w: ||
V:2
 x8 | x8 | x8 | x8 | x8 | x8 | E[EF] [EG]4 [DF]2- | [DF]2 E2 D2 E2 | x8 | x8 | x8 | x8 | x8 |] %13
V:3
 G,A, B,2 A,2 G,2 | B,B,[K:treble] E2 E2 E2 | B,B,[K:bass] B,2 B,2 B,B, | B,B, =A,2 A,2 B,_A, | %4
w: 1.~~ * * * *||||
 G,A, B,2 B,2 C2 | =A,A, B,2[K:treble] _DC =B,2 | B,C[K:bass] B,2 B,2 B,2 | A,2 G,2 A,2 B,2 | %8
w: ||||
 G,A, B,2 B,2 C2 | =A,A, B,2[K:treble] _DC =B,2 | B,C[K:bass] B,2 B,2 B,2 | A,2 G,2 A,2 G,2- | %12
w: ||||
 G,6 z2 |] %13
w: |
V:4
 E,E, E,2 E,2 E,2 | E,E, E,2 E,2 E,2 | E,E, B,,2 B,,2 E,E, | E,E, F,2 F,,2 B,,2 | %4
 E,E, E,2 E,2 E,2 | E,E, E,2 G,2 _G,2 | G,A, z2 z2 B,,2 | F,2 E,2 F,2 G,2 | E,E, E,2 E,2 E,2 | %9
 E,E, E,2 G,2 _G,2 | G,A, z2 z2 B,,2 | B,,2 E,6- | E,6 z2 |] %13

